X:1
T:Title
%%score ( 1 2 ) { 3 | 4 }
L:1/8
Q:1/4=95
M:4/4
K:Bb
V:1 treble nm="Grand Piano, Soprano"
V:2 treble 
V:3 bass nm="Choir Pad, Come Today"
V:4 bass 
V:1
 [DF][_D=E][_EG][=DF] [DB][CA][Ec][DB] | [B,D][DF] [FA]2 [EG]4 | z2 F6 | z2 F4 z2 | %4
w: By~R.~L.~Blowers * * * * * * *||||
 [DF][_D=E][_EG][=DF] [DB][CA][Ec][DB] | [B,D][DF] [FA]2 [EG]4 | z2 c6 | z2 f6 | %8
w: ||||
 [EF]2 [Ec]2- [Ec][D=B][Ed][Ec] | [EA][EG] [DF]2 [DB]4 | [EF]2 [Ec]2- [Ec][E=B][Ed][Ec] | %11
w: |||
 [EA]F [^Fd]4 [=Fe]2 | [DF][_D=E][_EG][=DF] [DB][CA][Ec][DB] | [B,D][DF] [FA]2 [EG]4 | z2 F6 | %15
w: ||||
 [=EG][_EA] [DB]6- | [DB]2 z2 z4 |] %17
w: ||
V:2
 x8 | x8 | EC z2 CD E2 | EC z2 DE F2 | x8 | x8 | GG z2 =EF G2 | dc z2 AB c2 | x8 | x8 | x8 | x8 | %12
 x8 | x8 | EC z2 CD E2 | x8 | x8 |] %17
V:3
 B,B,B,B, F,F,F,F, | F,B, B,2 B,4 | z4 A,B, C2 | z4 B,D D2 | B,B,B,B, F,F,F,F, | F,B, B,2 B,4 | %6
 z4 G,A, B,2 | z4 CD E2 | A,2 A,2- A,A,A,A, | CA, B,2 F,4 | A,2 A,2- A,A,A,A, | CA, A,6 | %12
 B,B,B,B, F,F,F,F, | F,B, B,2 B,4 | z4 A,B, C2 | B,F, F,6- | F,2 z2 z4 |] %17
V:4
 B,,B,,B,,B,, B,,B,,B,,B,, | B,,B,, E,2 E,4 | z4 F,F, F,2 | z4 B,,B,, B,,2 | %4
 B,,B,,B,,B,, B,,B,,B,,B,, | B,,B,, E,2 E,4 | z4 C,C, C,2 | z4 F,F, F,2 | F,2 F,2- F,F,F,F, | %9
 F,F, B,,2 B,,4 | F,2 F,2- F,F,F,F, | F,F, D,4 C,2 | B,,B,,B,,B,, B,,B,,B,,B,, | B,,B,, E,2 E,4 | %14
 z4 F,F, F,2 | .C,2 B,,6- | B,,2 z2 z4 |] %17

